build/img/SVG/envelope.svg

<?xml version="1.0" encoding="utf-8"?>
<!-- Generated by IcoMoon.io -->
<!DOCTYPE svg PUBLIC "-//W3C//DTD SVG 1.1//EN" "http://www.w3.org/Graphics/SVG/1.1/DTD/svg11.dtd">
<svg version="1.1" xmlns="http://www.w3.org/2000/svg" xmlns:xlink="http://www.w3.org/1999/xlink" width="56" height="56" viewBox="0 0 56 56">
<path fill="#444444" d="M56 22.187v24.812q0 2.062-1.469 3.531t-3.531 1.469h-46q-2.062 0-3.531-1.469t-1.469-3.531v-24.812q1.375 1.531 3.156 2.719 11.312 7.687 15.531 10.781 1.781 1.313 2.891 2.047t2.953 1.5 3.437 0.766h0.063q1.594 0 3.437-0.766t2.953-1.5 2.891-2.047q5.313-3.844 15.562-10.781 1.781-1.219 3.125-2.719zM56 13q0 2.469-1.531 4.719t-3.812 3.844q-11.75 8.156-14.625 10.156-0.312 0.219-1.328 0.953t-1.687 1.187-1.625 1.016-1.797 0.844-1.562 0.281h-0.063q-0.719 0-1.562-0.281t-1.797-0.844-1.625-1.016-1.687-1.187-1.328-0.953q-2.844-2-8.187-5.703t-6.406-4.453q-1.938-1.313-3.656-3.609t-1.719-4.266q0-2.437 1.297-4.063t3.703-1.625h46q2.031 0 3.516 1.469t1.484 3.531z"></path>
</svg>

<svg xmlns="http://www.w3.org/2000/svg" width="56" height="56" viewBox="0 0 56 56"><path fill="#444" d="M56 22.187V47q0 2.06-1.47 3.53T51 52H5q-2.062 0-3.53-1.47T0 47V22.186q1.375 1.53 3.156 2.72 11.312 7.686 15.53 10.78Q20.47 37 21.58 37.734t2.953 1.5T27.97 40h.063q1.595 0 3.438-.766t2.953-1.5 2.892-2.047q5.313-3.844 15.562-10.78 1.78-1.22 3.125-2.72zM56 13q0 2.47-1.53 4.72t-3.813 3.843Q38.907 29.72 36.032 31.72q-.312.218-1.328.952t-1.687 1.187-1.625 1.015-1.797.844-1.562.28h-.063q-.72 0-1.562-.28t-1.797-.845-1.624-1.016T21.3 32.67t-1.33-.953q-2.843-2-8.186-5.704t-6.406-4.453q-1.938-1.313-3.656-3.61T.002 13.69q0-2.437 1.298-4.063T5.003 8h46q2.03 0 3.516 1.47T56.002 13z"/></svg>
